Newaita-dark/mimetypes/24/application-x-skgc.svg

<?xml version="1.0" encoding="UTF-8"?>
<svg xmlns="http://www.w3.org/2000/svg" xmlns:xlink="http://www.w3.org/1999/xlink" width="24px" height="24px" viewBox="0 0 24 24" version="1.1">
<defs>
<linearGradient id="linear0" gradientUnits="userSpaceOnUse" x1="254" y1="233.5" x2="254" y2="254.666672" gradientTransform="matrix(0.0468795,0,0,0.0468795,0.49614,10.079089)">
<stop offset="0" style="stop-color:rgb(0%,0%,0%);stop-opacity:0.27451;"/>
<stop offset="1" style="stop-color:rgb(0%,0%,0%);stop-opacity:0;"/>
</linearGradient>
<radialGradient id="radial0" gradientUnits="userSpaceOnUse" cx="450.908936" cy="189.579361" fx="450.908936" fy="189.579361" r="21.166656" gradientTransform="matrix(0.000000130628,-0.0585994,-0.105479,-0.0000000761539,37.113427,47.696499)">
<stop offset="0" style="stop-color:rgb(0%,0%,0%);stop-opacity:0.313726;"/>
<stop offset="0.222222" style="stop-color:rgb(0%,0%,0%);stop-opacity:0.27451;"/>
<stop offset="1" style="stop-color:rgb(0%,0%,0%);stop-opacity:0;"/>
</radialGradient>
<radialGradient id="radial1" gradientUnits="userSpaceOnUse" cx="450.908936" cy="189.579361" fx="450.908936" fy="189.579361" r="21.166656" gradientTransform="matrix(-0.000000130628,0.0585994,0.105479,0.0000000761539,-13.794787,-5.645609)">
<stop offset="0" style="stop-color:rgb(0%,0%,0%);stop-opacity:0.313726;"/>
<stop offset="0.222222" style="stop-color:rgb(0%,0%,0%);stop-opacity:0.27451;"/>
<stop offset="1" style="stop-color:rgb(0%,0%,0%);stop-opacity:0;"/>
</radialGradient>
<radialGradient id="radial2" gradientUnits="userSpaceOnUse" cx="450.908936" cy="189.579361" fx="450.908936" fy="189.579361" r="21.166656" gradientTransform="matrix(-0.000000130628,-0.0585994,0.105479,-0.0000000761539,-13.794787,47.696499)">
<stop offset="0" style="stop-color:rgb(0%,0%,0%);stop-opacity:0.313726;"/>
<stop offset="0.222222" style="stop-color:rgb(0%,0%,0%);stop-opacity:0.27451;"/>
<stop offset="1" style="stop-color:rgb(0%,0%,0%);stop-opacity:0;"/>
</radialGradient>
<radialGradient id="radial3" gradientUnits="userSpaceOnUse" cx="450.908936" cy="189.579361" fx="450.908936" fy="189.579361" r="21.166656" gradientTransform="matrix(0.000000130628,0.0585994,-0.105479,0.0000000761539,37.113425,-5.64561)">
<stop offset="0" style="stop-color:rgb(0%,0%,0%);stop-opacity:0.313726;"/>
<stop offset="0.222222" style="stop-color:rgb(0%,0%,0%);stop-opacity:0.27451;"/>
<stop offset="1" style="stop-color:rgb(0%,0%,0%);stop-opacity:0;"/>
</radialGradient>
<linearGradient id="linear1" gradientUnits="userSpaceOnUse" x1="940" y1="1695.118164" x2="940" y2="175.118118" gradientTransform="matrix(0.0124035,0,0,0.0124035,0,0.00000000000000141)">
<stop offset="0" style="stop-color:rgb(100%,80.000001%,50.196081%);stop-opacity:1;"/>
<stop offset="1" style="stop-color:rgb(100%,87.843138%,69.803923%);stop-opacity:1;"/>
</linearGradient>
<linearGradient id="linear2" gradientUnits="userSpaceOnUse" x1="249.189423" y1="233.5" x2="249.189423" y2="254.666687" gradientTransform="matrix(0.0224206,0,0,0.082039,11.281817,-12.394717)">
<stop offset="0" style="stop-color:rgb(0%,0%,0%);stop-opacity:0.27451;"/>
<stop offset="1" style="stop-color:rgb(0%,0%,0%);stop-opacity:0;"/>
</linearGradient>
<linearGradient id="linear3" gradientUnits="userSpaceOnUse" x1="338.666656" y1="233.5" x2="338.666656" y2="-168.666672" gradientTransform="matrix(0.0468795,0,0,0.0468795,0,10.079087)">
<stop offset="0" style="stop-color:rgb(100%,65.490198%,14.901961%);stop-opacity:1;"/>
<stop offset="1" style="stop-color:rgb(100%,71.764708%,30.19608%);stop-opacity:1;"/>
</linearGradient>
<filter id="alpha" filterUnits="objectBoundingBox" x="0%" y="0%" width="100%" height="100%">
  <feColorMatrix type="matrix" in="SourceGraphic" values="0 0 0 0 1 0 0 0 0 1 0 0 0 0 1 0 0 0 1 0"/>
</filter>
<mask id="mask0">
  <g filter="url(#alpha)">
<rect x="0" y="0" width="24" height="24" style="fill:rgb(0%,0%,0%);fill-opacity:0.99;stroke:none;"/>
  </g>
</mask>
<linearGradient id="linear4" gradientUnits="userSpaceOnUse" x1="4657.165527" y1="7219.344238" x2="4657.165527" y2="1474.462158" gradientTransform="matrix(0.264583,0,0,0.264583,-312.208344,-215)">
<stop offset="0" style="stop-color:rgb(100%,65.490198%,14.901961%);stop-opacity:1;"/>
<stop offset="1" style="stop-color:rgb(100%,71.764708%,30.19608%);stop-opacity:1;"/>
</linearGradient>
<clipPath id="clip1">
  <rect x="0" y="0" width="24" height="24"/>
</clipPath>
<g id="surface5" clip-path="url(#clip1)">
<path style="fill-rule:nonzero;fill:url(#linear4);stroke-width:11.338583;stroke-linecap:round;stroke-linejoin:round;stroke:rgb(12.941177%,12.941177%,12.941177%);stroke-opacity:1;stroke-miterlimit:4;" d="M 940.067758 695.051773 C 840.234766 695.051773 759.927471 766.541013 759.927471 855.036503 L 759.927471 895.032686 L 839.919836 895.032686 L 839.919836 855.036503 C 839.919836 810.946223 884.639977 775.044138 940.067758 775.044138 C 995.495538 775.044138 1039.900749 810.946223 1039.900749 855.036503 L 1039.900749 975.025051 L 709.85351 975.025051 C 693.47712 975.025051 679.935105 988.567066 679.935105 1005.258386 L 679.935105 1225.079926 C 679.935105 1241.771246 693.47712 1254.99833 709.85351 1254.99833 L 1169.967075 1254.99833 C 1186.658396 1254.99833 1199.88548 1241.771246 1199.88548 1225.079926 L 1199.88548 1005.258386 C 1199.88548 988.567066 1186.658396 975.025051 1169.967075 975.025051 L 1119.893114 975.025051 L 1119.893114 855.036503 C 1119.893114 766.541013 1039.585819 695.051773 940.067758 695.051773 Z M 940.067758 695.051773 " transform="matrix(0.0124035,0,0,0.0124035,0,0)"/>
</g>
</defs>
<g id="surface1">
<path style=" stroke:none;fill-rule:nonzero;fill:url(#linear0);" d="M 5.953125 21.027344 L 17.363281 21.027344 L 17.363281 22.019531 L 5.953125 22.019531 Z M 5.953125 21.027344 "/>
<path style=" stroke:none;fill-rule:nonzero;fill:url(#radial0);" d="M 17.363281 21.027344 L 19.347656 21.027344 L 19.347656 20.03125 L 17.363281 20.03125 Z M 17.363281 21.027344 "/>
<path style=" stroke:none;fill-rule:nonzero;fill:url(#radial1);" d="M 5.953125 21.027344 L 3.96875 21.027344 L 3.96875 22.019531 L 5.953125 22.019531 Z M 5.953125 21.027344 "/>
<path style=" stroke:none;fill-rule:nonzero;fill:url(#radial2);" d="M 5.953125 21.027344 L 3.96875 21.027344 L 3.96875 20.03125 L 5.953125 20.03125 Z M 5.953125 21.027344 "/>
<path style=" stroke:none;fill-rule:nonzero;fill:url(#radial3);" d="M 17.363281 21.027344 L 19.347656 21.027344 L 19.347656 22.019531 L 17.363281 22.019531 Z M 17.363281 21.027344 "/>
<path style=" stroke:none;fill-rule:nonzero;fill:url(#linear1);" d="M 13.90625 2.171875 L 4.960938 2.171875 C 4.410156 2.171875 3.96875 2.613281 3.96875 3.164062 L 3.96875 20.03125 C 3.96875 20.582031 4.410156 21.027344 4.960938 21.027344 L 18.355469 21.027344 C 18.90625 21.027344 19.347656 20.582031 19.347656 20.03125 L 19.347656 7.613281 Z M 13.90625 2.171875 "/>
<path style=" stroke:none;fill-rule:nonzero;fill:url(#linear2);" d="M 13.890625 6.761719 L 18.605469 6.761719 L 19.347656 7.503906 L 19.347656 8.496094 L 13.890625 8.496094 Z M 13.890625 6.761719 "/>
<path style=" stroke:none;fill-rule:nonzero;fill:rgb(0%,0%,0%);fill-opacity:0.235294;" d="M 3.96875 19.648438 L 3.96875 20.03125 C 3.96875 20.582031 4.410156 21.027344 4.960938 21.027344 L 18.355469 21.027344 C 18.90625 21.027344 19.347656 20.582031 19.347656 20.03125 L 19.347656 19.648438 C 19.347656 20.199219 18.90625 20.640625 18.355469 20.640625 L 4.960938 20.640625 C 4.410156 20.640625 3.96875 20.199219 3.96875 19.648438 Z M 3.96875 19.648438 "/>
<path style=" stroke:none;fill-rule:nonzero;fill:rgb(100%,100%,100%);fill-opacity:0.313726;" d="M 4.960938 2.171875 C 4.410156 2.171875 3.96875 2.613281 3.96875 3.164062 L 3.96875 3.535156 C 3.96875 2.988281 4.410156 2.542969 4.960938 2.542969 L 13.90625 2.542969 L 19.347656 7.988281 L 19.347656 7.613281 L 13.90625 2.171875 Z M 4.960938 2.171875 "/>
<path style=" stroke:none;fill-rule:nonzero;fill:url(#linear3);" d="M 19.347656 7.613281 L 13.90625 2.171875 L 13.90625 6.621094 C 13.90625 7.171875 14.347656 7.613281 14.898438 7.613281 Z M 19.347656 7.613281 "/>
<path style=" stroke:none;fill-rule:nonzero;fill:rgb(0%,0%,0%);fill-opacity:0.235294;" d="M 13.90625 6.390625 L 13.90625 6.621094 C 13.90625 7.171875 14.347656 7.613281 14.898438 7.613281 L 19.347656 7.613281 L 19.117188 7.382812 L 14.898438 7.382812 C 14.347656 7.382812 13.90625 6.9375 13.90625 6.390625 Z M 13.90625 6.390625 "/>
<path style=" stroke:none;fill-rule:nonzero;fill:rgb(100%,100%,100%);fill-opacity:0.392157;" d="M 13.90625 2.171875 L 13.90625 2.542969 L 18.976562 7.613281 L 19.347656 7.613281 Z M 13.90625 2.171875 "/>
<path style=" stroke:none;fill-rule:nonzero;fill:rgb(12.941177%,12.941177%,12.941177%);fill-opacity:1;" d="M 13.90625 2.101562 C 13.867188 2.101562 13.835938 2.132812 13.835938 2.171875 L 13.835938 6.621094 C 13.835938 7.210938 14.3125 7.683594 14.898438 7.683594 L 19.347656 7.683594 C 19.378906 7.683594 19.402344 7.667969 19.414062 7.640625 C 19.425781 7.617188 19.417969 7.585938 19.398438 7.566406 L 13.957031 2.121094 C 13.941406 2.109375 13.925781 2.101562 13.90625 2.101562 Z M 13.976562 2.339844 L 19.179688 7.542969 L 14.898438 7.542969 C 14.386719 7.542969 13.976562 7.132812 13.976562 6.621094 Z M 13.976562 2.339844 "/>
<path style=" stroke:none;fill-rule:nonzero;fill:rgb(12.941177%,12.941177%,12.941177%);fill-opacity:1;" d="M 4.960938 2.101562 C 4.375 2.101562 3.898438 2.578125 3.898438 3.164062 L 3.898438 20.03125 C 3.898438 20.621094 4.375 21.097656 4.960938 21.097656 L 18.355469 21.097656 C 18.945312 21.097656 19.417969 20.621094 19.417969 20.03125 L 19.417969 7.613281 C 19.417969 7.597656 19.414062 7.578125 19.398438 7.566406 L 13.957031 2.121094 C 13.941406 2.109375 13.925781 2.101562 13.90625 2.101562 Z M 4.960938 2.242188 L 13.878906 2.242188 L 19.277344 7.644531 L 19.277344 20.03125 C 19.277344 20.546875 18.871094 20.957031 18.355469 20.957031 L 4.960938 20.957031 C 4.449219 20.957031 4.039062 20.546875 4.039062 20.03125 L 4.039062 3.164062 C 4.039062 2.652344 4.449219 2.242188 4.960938 2.242188 Z M 4.960938 2.242188 "/>
<use xlink:href="#surface5" mask="url(#mask0)"/>
</g>
</svg>

<svg xmlns="http://www.w3.org/2000/svg" xmlns:xlink="http://www.w3.org/1999/xlink" width="32" height="32" viewBox="0 0 24 24"><defs><linearGradient id="d" gradientUnits="userSpaceOnUse" x1="254" y1="233.5" x2="254" y2="254.667" gradientTransform="matrix(.04688 0 0 .04688 .496 10.08)"><stop offset="0" stop-opacity=".275"/><stop offset="1" stop-opacity="0"/></linearGradient><radialGradient id="e" gradientUnits="userSpaceOnUse" cx="450.909" cy="189.579" fx="450.909" fy="189.579" r="21.167" gradientTransform="matrix(0 -.0586 -.10548 0 37.113 47.696)"><stop offset="0" stop-opacity=".314"/><stop offset=".222" stop-opacity=".275"/><stop offset="1" stop-opacity="0"/></radialGradient><radialGradient id="f" gradientUnits="userSpaceOnUse" cx="450.909" cy="189.579" fx="450.909" fy="189.579" r="21.167" gradientTransform="matrix(0 .0586 .10548 0 -13.795 -5.646)"><stop offset="0" stop-opacity=".314"/><stop offset=".222" stop-opacity=".275"/><stop offset="1" stop-opacity="0"/></radialGradient><radialGradient id="g" gradientUnits="userSpaceOnUse" cx="450.909" cy="189.579" fx="450.909" fy="189.579" r="21.167" gradientTransform="matrix(0 -.0586 .10548 0 -13.795 47.696)"><stop offset="0" stop-opacity=".314"/><stop offset=".222" stop-opacity=".275"/><stop offset="1" stop-opacity="0"/></radialGradient><radialGradient id="h" gradientUnits="userSpaceOnUse" cx="450.909" cy="189.579" fx="450.909" fy="189.579" r="21.167" gradientTransform="matrix(0 .0586 -.10548 0 37.113 -5.646)"><stop offset="0" stop-opacity=".314"/><stop offset=".222" stop-opacity=".275"/><stop offset="1" stop-opacity="0"/></radialGradient><linearGradient id="i" gradientUnits="userSpaceOnUse" x1="940" y1="1695.118" x2="940" y2="175.118" gradientTransform="scale(.0124)"><stop offset="0" stop-color="#ffcc80"/><stop offset="1" stop-color="#ffe0b2"/></linearGradient><linearGradient id="j" gradientUnits="userSpaceOnUse" x1="249.189" y1="233.5" x2="249.189" y2="254.667" gradientTransform="matrix(.02242 0 0 .08204 11.282 -12.395)"><stop offset="0" stop-opacity=".275"/><stop offset="1" stop-opacity="0"/></linearGradient><linearGradient id="k" gradientUnits="userSpaceOnUse" x1="338.667" y1="233.5" x2="338.667" y2="-168.667" gradientTransform="matrix(.04688 0 0 .04688 0 10.08)"><stop offset="0" stop-color="#ffa726"/><stop offset="1" stop-color="#ffb74d"/></linearGradient><filter id="a" filterUnits="objectBoundingBox" x="0%" y="0%" width="100%" height="100%"><feColorMatrix in="SourceGraphic" values="0 0 0 0 1 0 0 0 0 1 0 0 0 0 1 0 0 0 1 0"/></filter><mask id="m"><path fill-opacity=".988" d="M0 0h24v24H0z" filter="url(#a)"/></mask><linearGradient id="c" gradientUnits="userSpaceOnUse" x1="4657.166" y1="7219.344" x2="4657.166" y2="1474.462" gradientTransform="matrix(.26458 0 0 .26458 -312.208 -215)"><stop offset="0" stop-color="#ffa726"/><stop offset="1" stop-color="#ffb74d"/></linearGradient><clipPath id="b"><path d="M0 0h24v24H0z"/></clipPath><g id="l" clip-path="url(#b)"><path d="M940.068 695.052c-99.833 0-180.14 71.489-180.14 159.985v39.996h79.992v-39.996c0-44.09 44.72-79.993 100.148-79.993s99.833 35.902 99.833 79.993v119.988H709.854c-16.377 0-29.919 13.542-29.919 30.233v219.822c0 16.691 13.542 29.918 29.919 29.918h460.113c16.691 0 29.918-13.227 29.918-29.918v-219.822c0-16.69-13.227-30.233-29.918-30.233h-50.074V855.037c0-88.496-80.307-159.985-179.825-159.985zm0 0" transform="scale(.0124)" fill="url(#c)" stroke-width="11.339" stroke-linecap="round" stroke-linejoin="round" stroke="#212121"/></g></defs><path d="M5.953 21.027h11.41v.993H5.953zm0 0" fill="url(#d)"/><path d="M17.363 21.027h1.985v-.996h-1.985zm0 0" fill="url(#e)"/><path d="M5.953 21.027H3.97v.993h1.984zm0 0" fill="url(#f)"/><path d="M5.953 21.027H3.97v-.996h1.984zm0 0" fill="url(#g)"/><path d="M17.363 21.027h1.985v.993h-1.985zm0 0" fill="url(#h)"/><path d="M13.906 2.172H4.961a.989.989 0 0 0-.992.992v16.867c0 .551.441.996.992.996h13.394c.551 0 .993-.445.993-.996V7.613zm0 0" fill="url(#i)"/><path d="M13.89 6.762h4.715l.743.742v.992H13.89zm0 0" fill="url(#j)"/><path d="M3.969 19.648v.383c0 .551.441.996.992.996h13.394c.551 0 .993-.445.993-.996v-.383c0 .551-.442.993-.993.993H4.961a.989.989 0 0 1-.992-.993zm0 0" fill-opacity=".235"/><path d="M4.96 2.172a.989.989 0 0 0-.991.992v.371c0-.547.441-.992.992-.992h8.945l5.442 5.445v-.375l-5.442-5.441zm0 0" fill="#fff" fill-opacity=".314"/><path d="M19.348 7.613l-5.442-5.441v4.45c0 .55.442.991.992.991zm0 0" fill="url(#k)"/><path d="M13.906 6.39v.231c0 .55.442.992.992.992h4.45l-.23-.23h-4.22a.991.991 0 0 1-.992-.992zm0 0" fill-opacity=".235"/><path d="M13.906 2.172v.371l5.07 5.07h.372zm0 0" fill="#fff" fill-opacity=".392"/><path d="M13.906 2.102a.07.07 0 0 0-.07.07v4.45c0 .589.476 1.062 1.062 1.062h4.45a.068.068 0 0 0 .066-.043c.012-.024.004-.055-.016-.075l-5.441-5.445a.082.082 0 0 0-.05-.02zm.07.238l5.204 5.203h-4.282a.919.919 0 0 1-.921-.922zm0 0" fill="#212121"/><path d="M4.96 2.102c-.585 0-1.062.476-1.062 1.062v16.867c0 .59.477 1.067 1.063 1.067h13.394c.59 0 1.063-.477 1.063-1.067V7.613c0-.015-.004-.035-.02-.047l-5.441-5.445a.082.082 0 0 0-.05-.02zm0 .14h8.919l5.398 5.403V20.03a.917.917 0 0 1-.922.926H4.961a.92.92 0 0 1-.922-.926V3.164c0-.512.41-.922.922-.922zm0 0" fill="#212121"/><use xlink:href="#l" mask="url(#m)"/></svg>
